X:101
T:Reels simple chords 139
M:3/4
L:1/8
K:A
[E2A,2C2E2] c2 c2 | AB [cA,CE]B Ac | BA FE [DD,F,A,]F | Ac d2 Bc | [dD,F,A,]c de dc |
BA [E2A,2C2E2] c2 | c2 AB [cA,CE]B | Ac BA FA | [dD,F,A,]c de fg |
af [eE,G,B,D]c Bc | A4 [E2A,2C2E2] | c2 c2 AB | [cA,CE]B Ac BA |
FE [DD,F,A,]F Ac | d2 Bc [dD,F,A,]c | de dc BA | [E2A,2C2E2] c2 c2 |
AB [cA,CE]B Ac | BA FA [dD,F,A,]c | de fg af | [eE,G,B,D]c Bc A4 |
[eA,CE]c ea | fd fa [gE,G,B,]a | bg a2 cd | [eA,CE]c ea fd |
fa [eA,CE]c BA | B2 cd [eA,CE]c | ea fd fa | [gE,G,B,]a bg a2 |
fg [aA,CE]g ae | fa ed [cE,G,B,]A | B2 A4 | [eA,CE]c ea fd |
fa [gE,G,B,]a bg | a2 cd [eA,CE]c | ea fd fa | [eA,CE]c BA B2 |
cd [eA,CE]c ea | fd fa [gE,G,B,]a | bg a2 fg | [aA,CE]g ae fa |
ed [cE,G,B,]A B2 | A4 |


